X: 1
T: Groves, The
M: 4/4
L: 1/8
R: hornpipe
K: Gmaj
G2 GF GABc | dGBG AFDE | F2 FE FGAB | cdfe dcAF |
GBAF GABc | dGBG AGFA | dfeg fdcd | A2 GF G4 :| 
B2 BA Bcde | fdcd AF F2 | DF F2 AF F2 | ABcA BG G2 |
B2 BA Bcde | fdcA dBcA | d2 eg fdcd | A2 GF G4 :|
d2 g2 g2 fg | a2 ag fgfe | d^cde f2 fg | a2 ag fgef |
d2 g2 g2 fg | a2 ag fgfe | dBeg fdcd | A2 GF G4 :|
Gd (3Bcd Gd (3Bcd | Fc (3ABc Fc (3ABc | Gd (3Bcd GdBc | dcde fdcA |
Gd (3Bcd Gd (3Bcd | Fc (3ABc Fc (3ABc | d2 eg fdcd | A2 GF G4 :|
gd (3Bcd gd (3Bcd | fc (3ABc fc (3ABc | gd (3Bcd gd (3Bcd | AG (3ABc ADFA |
dedB cecA | (3Bcd BG ADFA | df (3efg fdcd | A2 GF G4 :|
